; generated by PrusaSlicer 2.5.0+linux-x64-GTK3 on 2023-02-24 at 17:37:04 UTC


;
;

;
;
; 

; external perimeters extrusion width = 0.45mm
; perimeters extrusion width = 0.45mm
; infill extrusion width = 0.45mm
; solid infill extrusion width = 0.45mm
; top infill extrusion width = 0.40mm
; first layer extrusion width = 0.42mm

M73 P0 R213
M201 X2500 Y2500 Z400 E5000 ; sets maximum accelerations, mm/sec^2
M203 X180 Y180 Z12 E80 ; sets maximum feedrates, mm / sec
M204 P1250 R1250 T2500 ; sets acceleration (P, T) and retract acceleration (R), mm/sec^2
M205 X8.00 Y8.00 Z2.00 E10.00 ; sets the jerk limits, mm/sec
M205 S0 T0 ; sets the minimum extruding and travel feed rate, mm/sec
M107
;TYPE:Custom
M862.3 P "MINI" ; printer model check
G90 ; use absolute coordinates
M83 ; extruder relative mode
M104 S170 ; set extruder temp for bed leveling
M140 S60 ; set bed temp
M109 R170 ; wait for bed leveling temp
M190 S60 ; wait for bed temp
M204 T1250 ; set travel acceleration
G28 ; home all without mesh bed level
G29 ; mesh bed leveling 
M204 T2500 ; restore travel acceleration
M104 S215 ; set extruder temp
G92 E0
G1 Y-2 X179 F2400
G1 Z3 F720
M109 S215 ; wait for extruder temp

; intro line
G1 X170 F1000
G1 Z0.2 F720
G1 X110 E8 F900
G1 X40 E10 F700
G92 E0

M221 S95 ; set flow
G21 ; set units to millimeters
G90 ; use absolute coordinates
M83 ; use relative distances for extrusion
M900 K0.2 ; Filament gcode LA 1.5
; ; Filament gcode LA 1.0
M107
;LAYER_CHANGE
;Z:0.2
;HEIGHT:0.2
;BEFORE_LAYER_CHANGE
G92 E0.0
;0.2


G1 E-3.2 F4200
G1 Z.2 F720
;AFTER_LAYER_CHANGE
;0.2
G1 Z.4
G1 X51.628 Y31.806 F9000
G1 Z.2 F720
G1 E3.2 F2400
M204 P800
;TYPE:Skirt/Brim
;WIDTH:0.42
G1 F1200
G1 X52.349 Y30.65 E.04272
G1 X53.017 Y29.835 E.03304
G1 X53.932 Y28.964 E.03961
G1 X54.764 Y28.346 E.0325
G1 X55.863 Y27.724 E.03961
G1 X56.821 Y27.327 E.0325
G1 X58.153 Y26.967 E.04325
G1 X59.407 Y26.813 E.03961
G1 X120.133 Y26.799 E1.90404
G1 X121.847 Y26.967 E.05399
G1 X123.609 Y27.49 E.05763
G1 X125.236 Y28.346 E.05763
G1 X126.664 Y29.504 E.05763
G1 X127.809 Y30.875 E.05602
G1 X128.576 Y32.219 E.04851
G1 X129.156 Y33.84 E.05399
G1 X129.437 Y35.657 E.05763
G1 X129.452 Y143.825 E3.39154
G1 X129.4 Y144.802 E.03068
G1 X129.185 Y146.047 E.0396
G1 X128.884 Y147.039 E.03251
G1 X128.372 Y148.194 E.03961
G1 X127.839 Y149.083 E.03251
G1 X126.983 Y150.165 E.04325
G1 X126.068 Y151.036 E.0396
G1 X125.236 Y151.654 E.03251
G1 X124.137 Y152.276 E.0396
G1 X123.179 Y152.673 E.03251
G1 X121.847 Y153.033 E.04325
G1 X120.593 Y153.187 E.03961
G1 X59.867 Y153.201 E1.90404
G1 X58.948 Y153.151 E.02885
G1 X57.703 Y152.935 E.0396
G1 X56.711 Y152.634 E.0325
G1 X55.556 Y152.122 E.03961
G1 X54.667 Y151.589 E.0325
G1 X53.671 Y150.812 E.03961
G1 X52.938 Y150.079 E.0325
G1 X52.096 Y148.986 E.04326
G1 X51.474 Y147.887 E.03961
G1 X50.969 Y146.603 E.04325
G1 X50.717 Y145.597 E.0325
G1 X50.557 Y144.227 E.04326
G1 X50.548 Y36.175 E3.38789
G1 X50.6 Y35.198 E.03068
G1 X50.815 Y33.953 E.03961
G1 X51.116 Y32.961 E.0325
G1 X51.604 Y31.861 E.03772
M204 P1000
; printing object PPMInspectOberschale-Body.stl id:0 copy 0
G1 E-2.24 F4200
;WIPE_START
G1 F7200
G1 X52.349 Y30.65 E-.78796
G1 X52.491 Y30.477 E-.12404
;WIPE_END
G1 E-.048 F4200
G1 Z.4 F720
G1 X54.756 Y32.731 F9000
G1 Z.2 F720
G1 E3.2 F2400
M204 P800
;TYPE:Perimeter
;WIDTH:0.419999
G1 F1200
G1 X55.123 Y32.234 E.01937
G1 X55.532 Y31.782 E.01911
G1 X55.979 Y31.377 E.0189
G1 X56.737 Y30.843 E.02908
G1 X57.269 Y30.559 E.0189
G1 X57.826 Y30.329 E.01889
G1 X58.406 Y30.169 E.01887
G1 X59.066 Y30.03 E.02113
G1 X59.613 Y29.97 E.01727
G1 X120.361 Y29.97 E1.90471
G1 X121.294 Y30.084 E.02947
G1 X121.878 Y30.23 E.01889
G1 X122.452 Y30.436 E.01911
G1 X123.003 Y30.696 E.01911
G1 X123.526 Y31.01 E.01911
G1 X124.016 Y31.373 E.01911
G1 X124.468 Y31.782 E.01911
G1 X124.877 Y32.234 E.01911
G1 X125.24 Y32.724 E.01912
G1 X125.55 Y33.241 E.0189
G1 X125.926 Y34.089 E.02908
G1 X126.101 Y34.666 E.0189
G1 X126.22 Y35.263 E.01911
G1 X126.28 Y35.87 E.01912
G1 X126.288 Y143.808 E3.38432
G1 X126.257 Y144.434 E.01965
G1 X126.171 Y145.019 E.01853
G1 X125.921 Y145.925 E.02946
G1 X125.693 Y146.475 E.01868
G1 X125.236 Y147.282 E.02908
G1 X124.877 Y147.766 E.0189
G1 X124.468 Y148.218 E.0191
G1 X124.016 Y148.627 E.01912
G1 X123.526 Y148.99 E.01911
G1 X123.009 Y149.3 E.01891
G1 X122.161 Y149.676 E.02908
G1 X121.591 Y149.849 E.01869
G1 X120.387 Y150.03 E.03817
G1 X59.942 Y150.038 E1.89521
G1 X59.316 Y150.007 E.01965
G1 X58.731 Y149.921 E.01854
G1 X57.843 Y149.677 E.02888
G1 X56.99 Y149.3 E.02923
G1 X56.473 Y148.99 E.01889
G1 X55.984 Y148.627 E.0191
G1 X55.537 Y148.222 E.01892
G1 X54.939 Y147.529 E.02871
G1 X54.596 Y147.018 E.01927
G1 X54.309 Y146.481 E.01911
G1 X54.076 Y145.918 E.0191
G1 X53.901 Y145.341 E.01891
G1 X53.742 Y144.427 E.02908
G1 X53.712 Y143.808 E.01943
G1 X53.712 Y36.192 E3.37423
G1 X53.743 Y35.566 E.01965
M73 P0 R212
G1 X53.829 Y34.981 E.01853
G1 X54.079 Y34.075 E.02946
G1 X54.307 Y33.525 E.01868
G1 X54.726 Y32.783 E.02672
M204 P1000
G1 X54.428 Y32.545 F9000
M204 P800
;TYPE:External perimeter
G1 F1200
G1 X54.831 Y31.995 E.0214
G1 X55.265 Y31.515 E.02028
G1 X55.743 Y31.082 E.02021
G1 X56.539 Y30.522 E.03054
G1 X57.108 Y30.218 E.0202
G1 X57.703 Y29.971 E.02021
G1 X58.306 Y29.805 E.01961
G1 X59.01 Y29.657 E.02257
G1 X59.599 Y29.593 E.01857
G1 X120.384 Y29.593 E1.90587
G1 X121.363 Y29.713 E.03092
G1 X121.988 Y29.869 E.0202
G1 X122.597 Y30.087 E.02028
G1 X123.181 Y30.363 E.02028
G1 X123.736 Y30.696 E.02028
G1 X124.255 Y31.081 E.02028
G1 X124.735 Y31.515 E.02028
G1 X125.169 Y31.995 E.02028
G1 X125.554 Y32.514 E.02028
G1 X125.886 Y33.067 E.02021
G1 X126.28 Y33.957 E.03053
G1 X126.467 Y34.574 E.0202
G1 X126.593 Y35.208 E.02028
G1 X126.657 Y35.852 E.02028
G1 X126.665 Y143.817 E3.38519
G1 X126.633 Y144.471 E.02052
G1 X126.54 Y145.097 E.01983
G1 X126.279 Y146.047 E.03092
G1 X126.033 Y146.641 E.02014
G1 X125.553 Y147.488 E.03054
G1 X125.169 Y148.006 E.02021
G1 X124.735 Y148.484 E.02026
G1 X124.255 Y148.919 E.02028
G1 X123.736 Y149.304 E.02028
G1 X123.183 Y149.636 E.02021
G1 X122.293 Y150.03 E.03053
G1 X121.678 Y150.217 E.02014
G1 X121.146 Y150.309 E.01694
G1 X120.401 Y150.407 E.02356
G1 X59.933 Y150.415 E1.89594
G1 X59.279 Y150.383 E.02052
G1 X58.653 Y150.29 E.01983
G1 X57.716 Y150.033 E.03047
G1 X56.817 Y149.635 E.03084
G1 X56.264 Y149.304 E.02021
G1 X55.745 Y148.919 E.02026
G1 X55.267 Y148.486 E.02022
G1 X54.638 Y147.758 E.03016
G1 X54.273 Y147.213 E.02058
G1 X53.968 Y146.642 E.02028
G1 X53.721 Y146.045 E.02026
G1 X53.533 Y145.428 E.02022
G1 X53.367 Y144.469 E.03053
G1 X53.335 Y143.817 E.02044
G1 X53.335 Y36.183 E3.37481
G1 X53.367 Y35.529 E.02052
G1 X53.46 Y34.903 E.01983
G1 X53.721 Y33.953 E.03092
G1 X53.967 Y33.359 E.02014
G1 X54.398 Y32.597 E.02745
M204 P1000
G1 X54.827 Y32.566 F9000
G1 E-2.24 F4200
;WIPE_START
G1 F7200
G1 X54.831 Y31.995 E-.41123
G1 X55.265 Y31.515 E-.35844
G1 X55.456 Y31.343 E-.14233
;WIPE_END
G1 E-.048 F4200
G1 Z.4 F720
G1 X68.703 Y61.66 F9000
G1 Z.2 F720
G1 E3.2 F2400
M204 P800
;TYPE:Perimeter
G1 F1200
G1 X69.265 Y61.818 E.01832
G1 X69.727 Y62.068 E.01645
G1 X70.116 Y62.387 E.01578
G1 X70.436 Y62.775 E.01578
G1 X70.681 Y63.227 E.01613
G1 X70.831 Y63.707 E.01575
G1 X70.887 Y64.215 E.01603
G1 X70.847 Y64.699 E.0152
G1 X70.714 Y65.188 E.01589
G1 X70.493 Y65.637 E.01569
G1 X70.172 Y66.056 E.01656
G1 X69.774 Y66.402 E.01654
G1 X69.316 Y66.662 E.01652
G1 X68.815 Y66.826 E.0165
G1 X68.26 Y66.885 E.01752
G1 X67.737 Y66.835 E.01645
G1 X67.235 Y66.682 E.01645
G1 X66.774 Y66.432 E.01645
G1 X66.37 Y66.097 E.01645
G1 X66.042 Y65.687 E.01645
G1 X65.801 Y65.221 E.01645
G1 X65.657 Y64.717 E.01645
G1 X65.616 Y64.306 E.01293
G1 X65.655 Y63.794 E.01611
G1 X65.794 Y63.296 E.01622
G1 X66.032 Y62.828 E.01644
G1 X66.357 Y62.417 E.01645
G1 X66.758 Y62.078 E.01645
G1 X67.218 Y61.826 E.01645
G1 X67.719 Y61.669 E.01645
G1 X68.241 Y61.615 E.01645
G1 X68.643 Y61.654 E.01267
M204 P1000
G1 X68.674 Y62.032 F9000
M204 P800
;TYPE:External perimeter
G1 F1200
G1 X69.093 Y62.154 E.01367
G1 X69.492 Y62.362 E.01411
G1 X69.841 Y62.646 E.01411
G1 X70.127 Y62.993 E.01411
G1 X70.339 Y63.39 E.01411
G1 X70.468 Y63.82 E.01409
G1 X70.51 Y64.254 E.01365
G1 X70.481 Y64.605 E.01107
G1 X70.367 Y65.04 E.0141
G1 X70.168 Y65.444 E.01411
G1 X69.894 Y65.8 E.01411
G1 X69.554 Y66.095 E.01411
G1 X69.162 Y66.317 E.01411
G1 X68.735 Y66.457 E.01411
G1 X68.288 Y66.509 E.01411
G1 X67.839 Y66.472 E.01411
G1 X67.407 Y66.346 E.01411
G1 X67.009 Y66.138 E.01411
G1 X66.659 Y65.854 E.01411
G1 X66.373 Y65.507 E.01411
G1 X66.161 Y65.11 E.01411
G1 X66.032 Y64.679 E.01411
G1 X65.991 Y64.269 E.01293
G1 X66.036 Y63.799 E.01481
G1 X66.134 Y63.459 E.01107
G1 X66.332 Y63.056 E.0141
G1 X66.607 Y62.7 E.01411
G1 X66.947 Y62.405 E.01411
G1 X67.338 Y62.183 E.01411
G1 X67.766 Y62.043 E.01411
G1 X68.349 Y62.001 E.01834
G1 X68.615 Y62.024 E.00837
M204 P1000
G1 X68.934 Y61.728 F9000
G1 E-2.24 F4200
;WIPE_START
G1 F7200
G1 X69.093 Y62.154 E-.2744
G1 X69.492 Y62.362 E-.24932
G1 X69.841 Y62.646 E-.24933
G1 X70.001 Y62.839 E-.13895
;WIPE_END
G1 E-.048 F4200
G1 Z.4 F720
G1 X65.633 Y74.768 F9000
G1 Z.2 F720
G1 E3.2 F2400
M204 P800
;TYPE:Perimeter
G1 F1200
G1 X65.637 Y74.663 E.0033
G1 X65.755 Y74.152 E.01645
G1 X65.973 Y73.674 E.01645
G1 X66.281 Y73.249 E.01645
G1 X66.666 Y72.894 E.01645
G1 X67.115 Y72.622 E.01645
G1 X67.609 Y72.444 E.01645
G1 X68.128 Y72.368 E.01645
G1 X68.652 Y72.396 E.01645
G1 X69.16 Y72.527 E.01645
G1 X69.632 Y72.756 E.01645
G1 X70.049 Y73.075 E.01645
G1 X70.395 Y73.469 E.01645
G1 X70.656 Y73.925 E.01645
G1 X70.821 Y74.423 E.01645
G1 X70.884 Y74.933 E.01611
G1 X70.85 Y75.434 E.01576
G1 X70.721 Y75.921 E.01578
G1 X70.492 Y76.388 E.01633
G1 X70.168 Y76.809 E.01665
G1 X69.79 Y77.141 E.01577
G1 X69.346 Y77.399 E.0161
G1 X68.848 Y77.569 E.01651
G1 X68.326 Y77.636 E.01648
G1 X67.803 Y77.599 E.01645
G1 X67.298 Y77.459 E.01642
G1 X66.832 Y77.223 E.01639
G1 X66.438 Y76.915 E.0157
G1 X66.105 Y76.531 E.01593
G1 X65.844 Y76.075 E.01645
G1 X65.682 Y75.588 E.01611
G1 X65.62 Y75.175 E.01309
G1 X65.631 Y74.828 E.01088
M204 P1000
G1 X65.996 Y75.098 F9000
M204 P800
;TYPE:External perimeter
G1 F1200
G1 X66.019 Y74.645 E.01422
G1 X66.134 Y74.21 E.01411
G1 X66.332 Y73.806 E.01411
G1 X66.607 Y73.45 E.01411
G1 X66.946 Y73.155 E.01411
G1 X67.338 Y72.933 E.01411
G1 X67.766 Y72.793 E.01411
G1 X68.213 Y72.741 E.01411
G1 X68.661 Y72.778 E.01411
G1 X69.093 Y72.904 E.01411
G1 X69.492 Y73.112 E.01411
G1 X69.841 Y73.396 E.01411
G1 X70.127 Y73.743 E.01411
G1 X70.339 Y74.14 E.01411
G1 X70.468 Y74.57 E.01409
G1 X70.509 Y75.004 E.01365
G1 X70.481 Y75.356 E.01107
G1 X70.367 Y75.79 E.0141
G1 X70.168 Y76.194 E.01411
G1 X69.893 Y76.55 E.01411
G1 X69.554 Y76.845 E.01411
G1 X69.162 Y77.067 E.01411
G1 X68.735 Y77.207 E.01411
G1 X68.288 Y77.259 E.01411
G1 X67.839 Y77.222 E.01411
G1 X67.407 Y77.096 E.01411
G1 X67.009 Y76.888 E.01411
G1 X66.645 Y76.588 E.01477
G1 X66.373 Y76.257 E.01343
G1 X66.161 Y75.861 E.0141
G1 X66.035 Y75.444 E.01364
G1 X65.998 Y75.157 E.00907
M204 P1000
G1 X65.642 Y74.911 F9000
G1 E-2.24 F4200
;WIPE_START
G1 F7200
G1 X66.019 Y74.645 E-.28432
G1 X66.134 Y74.21 E-.24934
G1 X66.332 Y73.806 E-.24932
G1 X66.474 Y73.622 E-.12903
;WIPE_END
G1 E-.048 F4200
G1 Z.4 F720
G1 X69.994 Y83.779 F9000
G1 Z.2 F720
G1 E3.2 F2400
M204 P800
;TYPE:Perimeter
G1 F1200
G1 X70.374 Y84.188 E.01749
G1 X70.636 Y84.627 E.01603
G1 X70.807 Y85.104 E.01588
G1 X70.884 Y85.61 E.01607
G1 X70.861 Y86.122 E.01607
G1 X70.739 Y86.619 E.01602
G1 X70.527 Y87.076 E.01579
G1 X70.22 Y87.501 E.01645
G1 X69.834 Y87.856 E.01645
G1 X69.385 Y88.128 E.01645
G1 X68.907 Y88.301 E.01593
G1 X68.372 Y88.382 E.01696
G1 X67.848 Y88.354 E.01645
G1 X67.34 Y88.223 E.01645
G1 X66.868 Y87.994 E.01645
G1 X66.451 Y87.675 E.01645
G1 X66.105 Y87.281 E.01645
G1 X65.844 Y86.825 E.01645
G1 X65.679 Y86.327 E.01645
G1 X65.616 Y85.806 E.01645
G1 X65.657 Y85.283 E.01645
G1 X65.801 Y84.779 E.01645
G1 X66.042 Y84.313 E.01645
G1 X66.363 Y83.911 E.01611
G1 X66.758 Y83.578 E.01621
G1 X67.218 Y83.326 E.01645
G1 X67.719 Y83.169 E.01645
G1 X68.241 Y83.115 E.01645
G1 X68.763 Y83.165 E.01645
G1 X69.265 Y83.318 E.01645
G1 X69.715 Y83.559 E.01601
G1 X69.947 Y83.742 E.00926
M204 P1000
G1 X69.789 Y84.102 F9000
M204 P800
;TYPE:External perimeter
G1 F1200
G1 X70.062 Y84.401 E.0127
G1 X70.294 Y84.787 E.01411
G1 X70.444 Y85.211 E.01411
G1 X70.507 Y85.656 E.01411
G1 X70.481 Y86.105 E.01411
G1 X70.367 Y86.54 E.01411
G1 X70.168 Y86.944 E.01411
G1 X69.893 Y87.3 E.01411
G1 X69.554 Y87.595 E.01411
G1 X69.162 Y87.817 E.01411
G1 X68.735 Y87.957 E.01411
G1 X68.288 Y88.009 E.01411
G1 X67.839 Y87.972 E.01411
G1 X67.407 Y87.846 E.01411
G1 X67.009 Y87.638 E.01411
G1 X66.659 Y87.354 E.01411
G1 X66.373 Y87.007 E.01411
G1 X66.161 Y86.61 E.01411
G1 X66.032 Y86.179 E.01411
G1 X65.991 Y85.769 E.01294
G1 X66.039 Y85.284 E.01528
G1 X66.176 Y84.855 E.01411
G1 X66.401 Y84.453 E.01446
G1 X66.79 Y84.033 E.01792
G1 X67.211 Y83.752 E.01588
G1 X67.729 Y83.552 E.01743
G1 X68.213 Y83.491 E.01528
G1 X68.661 Y83.528 E.01411
G1 X69.093 Y83.654 E.01411
G1 X69.488 Y83.859 E.01395
G1 X69.747 Y84.059 E.01027
M204 P1000
G1 X70.171 Y83.982 F9000
G1 E-2.24 F4200
;WIPE_START
G1 F7200
G1 X70.062 Y84.401 E-.25761
G1 X70.294 Y84.787 E-.24934
G1 X70.444 Y85.211 E-.24931
G1 X70.484 Y85.489 E-.15574
;WIPE_END
G1 E-.048 F4200
G1 Z.4 F720
G1 X107.267 Y134.129 F9000
G1 Z.2 F720
G1 E3.2 F2400
M204 P800
;TYPE:Perimeter
G1 F1200
G1 X107.225 Y134.305 E.00567
G1 X107.055 Y134.503 E.00817
G1 X106.819 Y134.604 E.00804
G1 X106.721 Y134.612 E.00308
G1 X73.279 Y134.612 E1.04858
G1 X73.028 Y134.554 E.00805
G1 X72.819 Y134.377 E.0086
G1 X72.72 Y134.137 E.00812
G1 X72.713 Y134.046 E.00285
G1 X72.713 Y115.604 E.57826
G1 X72.771 Y115.353 E.00807
G1 X72.944 Y115.148 E.0084
G1 X73.194 Y115.044 E.00849
G1 X106.721 Y115.038 E1.05124
G1 X106.988 Y115.104 E.0086
G1 X107.182 Y115.275 E.00811
G1 X107.28 Y115.514 E.00808
G1 X107.287 Y115.604 E.00283
G1 X107.281 Y134.071 E.57903
M204 P1000
G1 X106.91 Y134.046 F9000
M204 P800
;TYPE:External perimeter
G1 F1200
G1 X106.845 Y134.189 E.00491
G1 X106.721 Y134.235 E.00413
G1 X73.279 Y134.235 E1.04858
G1 X73.134 Y134.168 E.005
G1 X73.09 Y134.046 E.00404
G1 X73.09 Y115.604 E.57826
G1 X73.158 Y115.459 E.005
G1 X73.279 Y115.415 E.00404
G1 X106.721 Y115.415 E1.04858
G1 X106.867 Y115.483 E.00503
G1 X106.91 Y115.604 E.004
G1 X106.91 Y133.986 E.57638
M204 P1000
G1 X107.018 Y134.16 F9000
G1 E-2.24 F4200
;WIPE_START
G1 F7200
G1 X106.845 Y134.189 E-.11783
G1 X106.721 Y134.235 E-.07306
G1 X105.42 Y134.235 E-.72111
;WIPE_END
G1 E-.048 F4200
G1 Z.4 F720
G1 X122.227 Y30.475 F9000
G1 Z.2 F720
G1 E3.2 F2400
M204 P800
;TYPE:Solid infill
;WIDTH:0.420118
G1 F1200
G1 X125.439 Y33.687 E.14246
G1 X125.66 Y34.188 E.01717
G1 X125.771 Y34.553 E.01198
G1 X121.694 Y30.476 E.18086
G1 X121.242 Y30.363 E.0146
G1 X121.02 Y30.335 E.00702
G1 X125.927 Y35.243 E.21766
G1 X125.993 Y35.841 E.01889
G1 X120.412 Y30.261 E.24751
G1 X119.871 Y30.253 E.017
G1 X125.997 Y36.379 E.27173
G1 X125.997 Y36.913 E.01673
G1 X119.337 Y30.253 E.2954
G1 X118.804 Y30.253 E.01673
G1 X125.997 Y37.446 E.31906
G1 X125.997 Y37.979 E.01673
G1 X118.27 Y30.253 E.34272
G1 X117.737 Y30.253 E.01673
G1 X125.997 Y38.513 E.36638
G1 X125.997 Y39.046 E.01673
G1 X117.204 Y30.253 E.39005
G1 X116.67 Y30.253 E.01673
G1 X125.997 Y39.58 E.41371
G1 X125.997 Y40.113 E.01673
G1 X116.137 Y30.253 E.43737
G1 X115.603 Y30.253 E.01673
G1 X125.997 Y40.647 E.46103
G1 X125.997 Y41.18 E.01673
G1 X115.07 Y30.253 E.4847
G1 X114.536 Y30.253 E.01673
G1 X125.997 Y41.714 E.50836
G1 X125.997 Y42.247 E.01673
G1 X114.003 Y30.253 E.53202
G1 X113.469 Y30.253 E.01673
G1 X125.997 Y42.781 E.55568
G1 X125.997 Y43.314 E.01673
G1 X112.936 Y30.253 E.57935
G1 X112.403 Y30.253 E.01673
G1 X125.997 Y43.848 E.60301
G1 X125.998 Y44.381 E.01673
G1 X111.869 Y30.253 E.62667
G1 X111.336 Y30.253 E.01673
G1 X125.998 Y44.915 E.65034
G1 X125.998 Y45.448 E.01673
G1 X110.802 Y30.253 E.674
G1 X110.269 Y30.253 E.01673
G1 X125.998 Y45.982 E.69766
G1 X125.998 Y46.515 E.01673
G1 X109.735 Y30.253 E.72132
G1 X109.202 Y30.253 E.01673
G1 X125.998 Y47.049 E.74499
