; generated by PrusaSlicer 2.5.0+linux-x64-GTK3 on 2023-02-24 at 17:25:23 UTC


;
;

;
;
; 

; external perimeters extrusion width = 0.45mm
; perimeters extrusion width = 0.45mm
; infill extrusion width = 0.45mm
; solid infill extrusion width = 0.45mm
; top infill extrusion width = 0.40mm
; first layer extrusion width = 0.42mm

M73 P0 R126
M201 X2500 Y2500 Z400 E5000 ; sets maximum accelerations, mm/sec^2
M203 X180 Y180 Z12 E80 ; sets maximum feedrates, mm / sec
M204 P1250 R1250 T2500 ; sets acceleration (P, T) and retract acceleration (R), mm/sec^2
M205 X8.00 Y8.00 Z2.00 E10.00 ; sets the jerk limits, mm/sec
M205 S0 T0 ; sets the minimum extruding and travel feed rate, mm/sec
M107
;TYPE:Custom
M862.3 P "MINI" ; printer model check
G90 ; use absolute coordinates
M83 ; extruder relative mode
M104 S170 ; set extruder temp for bed leveling
M140 S60 ; set bed temp
M109 R170 ; wait for bed leveling temp
M190 S60 ; wait for bed temp
M204 T1250 ; set travel acceleration
G28 ; home all without mesh bed level
G29 ; mesh bed leveling 
M204 T2500 ; restore travel acceleration
M104 S215 ; set extruder temp
G92 E0
G1 Y-2 X179 F2400
G1 Z3 F720
M109 S215 ; wait for extruder temp

; intro line
G1 X170 F1000
G1 Z0.2 F720
G1 X110 E8 F900
G1 X40 E10 F700
G92 E0

M221 S95 ; set flow
G21 ; set units to millimeters
G90 ; use absolute coordinates
M83 ; use relative distances for extrusion
M900 K0.2 ; Filament gcode LA 1.5
; ; Filament gcode LA 1.0
M107
;LAYER_CHANGE
;Z:0.2
;HEIGHT:0.2
;BEFORE_LAYER_CHANGE
G92 E0.0
;0.2


G1 E-3.2 F4200
M73 P0 R125
G1 Z.2 F720
;AFTER_LAYER_CHANGE
;0.2
G1 Z.4
G1 X51.628 Y31.806 F9000
G1 Z.2 F720
G1 E3.2 F2400
M204 P800
;TYPE:Skirt/Brim
;WIDTH:0.42
G1 F1200
G1 X52.349 Y30.65 E.04272
G1 X53.017 Y29.835 E.03304
G1 X53.932 Y28.964 E.03961
G1 X54.764 Y28.346 E.0325
G1 X55.863 Y27.724 E.03961
G1 X56.821 Y27.327 E.0325
G1 X58.153 Y26.967 E.04325
G1 X59.407 Y26.813 E.03961
G1 X120.133 Y26.799 E1.90404
G1 X121.847 Y26.967 E.05399
G1 X123.609 Y27.49 E.05763
G1 X125.236 Y28.346 E.05763
G1 X126.664 Y29.504 E.05763
G1 X127.809 Y30.875 E.05602
G1 X128.576 Y32.219 E.04851
G1 X129.156 Y33.84 E.05399
G1 X129.437 Y35.657 E.05763
G1 X129.452 Y143.825 E3.39154
G1 X129.4 Y144.802 E.03068
G1 X129.185 Y146.047 E.0396
G1 X128.884 Y147.039 E.03251
G1 X128.372 Y148.194 E.03961
G1 X127.839 Y149.083 E.03251
G1 X126.983 Y150.165 E.04325
G1 X126.068 Y151.036 E.0396
G1 X125.236 Y151.654 E.03251
G1 X124.137 Y152.276 E.0396
G1 X123.179 Y152.673 E.03251
G1 X121.847 Y153.033 E.04325
G1 X120.593 Y153.187 E.03961
G1 X59.867 Y153.201 E1.90404
G1 X58.948 Y153.151 E.02885
G1 X57.703 Y152.935 E.0396
G1 X56.711 Y152.634 E.0325
G1 X55.556 Y152.122 E.03961
G1 X54.667 Y151.589 E.0325
G1 X53.671 Y150.812 E.03961
G1 X52.938 Y150.079 E.0325
G1 X52.096 Y148.986 E.04326
G1 X51.474 Y147.887 E.03961
G1 X50.969 Y146.603 E.04325
G1 X50.717 Y145.597 E.0325
G1 X50.557 Y144.227 E.04326
G1 X50.548 Y36.175 E3.38789
G1 X50.6 Y35.198 E.03068
G1 X50.815 Y33.953 E.03961
G1 X51.116 Y32.961 E.0325
G1 X51.604 Y31.861 E.03772
M204 P1000
; printing object PPMInspectUnterschale-Body.stl id:0 copy 0
G1 E-2.24 F4200
;WIPE_START
G1 F7200
G1 X52.349 Y30.65 E-.78796
G1 X52.491 Y30.477 E-.12404
;WIPE_END
G1 E-.048 F4200
G1 Z.4 F720
G1 X121.704 Y30.187 F9000
G1 Z.2 F720
G1 E3.2 F2400
M204 P800
;TYPE:Perimeter
;WIDTH:0.419999
G1 F1200
G1 X121.878 Y30.23 E.00565
G1 X122.452 Y30.436 E.01911
G1 X123.003 Y30.696 E.01911
G1 X123.526 Y31.01 E.01911
G1 X124.016 Y31.373 E.01911
G1 X124.468 Y31.782 E.01911
G1 X124.877 Y32.234 E.01911
G1 X125.24 Y32.724 E.01912
G1 X125.55 Y33.241 E.0189
G1 X125.926 Y34.089 E.02908
G1 X126.101 Y34.666 E.0189
G1 X126.22 Y35.263 E.01911
G1 X126.28 Y35.87 E.01912
G1 X126.288 Y143.808 E3.38432
G1 X126.257 Y144.434 E.01965
G1 X126.171 Y145.019 E.01853
G1 X125.921 Y145.925 E.02946
G1 X125.693 Y146.475 E.01868
G1 X125.236 Y147.282 E.02908
G1 X124.877 Y147.766 E.0189
G1 X124.468 Y148.218 E.0191
G1 X124.016 Y148.627 E.01912
G1 X123.526 Y148.99 E.01911
G1 X123.009 Y149.3 E.01891
G1 X122.161 Y149.676 E.02908
G1 X121.591 Y149.849 E.01869
G1 X120.942 Y149.962 E.02065
G1 X120.387 Y150.03 E.01753
G1 X59.942 Y150.038 E1.89521
G1 X59.316 Y150.007 E.01965
G1 X58.731 Y149.921 E.01854
G1 X57.843 Y149.677 E.02888
G1 X56.99 Y149.3 E.02923
G1 X56.473 Y148.99 E.01889
G1 X55.984 Y148.627 E.0191
G1 X55.537 Y148.222 E.01892
G1 X54.939 Y147.529 E.02871
G1 X54.596 Y147.018 E.01927
G1 X54.309 Y146.481 E.01911
G1 X54.076 Y145.918 E.0191
G1 X53.901 Y145.341 E.01891
G1 X53.742 Y144.427 E.02908
G1 X53.712 Y143.808 E.01943
G1 X53.712 Y36.192 E3.37423
G1 X53.743 Y35.566 E.01965
G1 X53.829 Y34.981 E.01853
G1 X54.079 Y34.075 E.02946
G1 X54.307 Y33.525 E.01868
G1 X54.758 Y32.728 E.02872
G1 X55.123 Y32.234 E.01926
G1 X55.532 Y31.782 E.01911
G1 X55.979 Y31.377 E.0189
G1 X56.737 Y30.843 E.02908
G1 X57.269 Y30.559 E.0189
G1 X57.832 Y30.326 E.01912
G1 X58.415 Y30.149 E.0191
G1 X59.002 Y30.032 E.01875
G1 X59.621 Y29.97 E.01949
G1 X120.361 Y29.97 E1.90448
G1 X121.294 Y30.084 E.02947
G1 X121.645 Y30.172 E.01136
M204 P1000
G1 X121.795 Y29.821 F9000
M204 P800
;TYPE:External perimeter
G1 F1200
G1 X121.988 Y29.869 E.00623
G1 X122.597 Y30.087 E.02028
G1 X123.181 Y30.363 E.02028
G1 X123.736 Y30.696 E.02028
G1 X124.255 Y31.081 E.02028
G1 X124.735 Y31.515 E.02028
G1 X125.169 Y31.995 E.02028
G1 X125.554 Y32.514 E.02028
G1 X125.886 Y33.067 E.02021
G1 X126.28 Y33.957 E.03053
G1 X126.467 Y34.574 E.0202
G1 X126.593 Y35.208 E.02028
G1 X126.657 Y35.852 E.02028
G1 X126.665 Y143.817 E3.38519
G1 X126.633 Y144.471 E.02052
G1 X126.54 Y145.097 E.01983
G1 X126.279 Y146.047 E.03092
G1 X126.033 Y146.641 E.02014
G1 X125.553 Y147.488 E.03054
G1 X125.169 Y148.006 E.02021
G1 X124.735 Y148.484 E.02026
G1 X124.255 Y148.919 E.02028
G1 X123.736 Y149.304 E.02028
G1 X123.183 Y149.636 E.02021
G1 X122.293 Y150.03 E.03053
G1 X121.678 Y150.217 E.02014
G1 X121.006 Y150.333 E.02137
G1 X120.401 Y150.407 E.01913
G1 X59.933 Y150.415 E1.89594
G1 X59.279 Y150.383 E.02052
G1 X58.653 Y150.29 E.01983
G1 X57.716 Y150.033 E.03047
G1 X56.817 Y149.635 E.03084
G1 X56.264 Y149.304 E.02021
G1 X55.745 Y148.919 E.02026
G1 X55.267 Y148.486 E.02022
G1 X54.638 Y147.758 E.03016
G1 X54.273 Y147.213 E.02058
G1 X53.968 Y146.642 E.02028
G1 X53.721 Y146.045 E.02026
G1 X53.533 Y145.428 E.02022
G1 X53.367 Y144.469 E.03053
G1 X53.335 Y143.817 E.02044
G1 X53.335 Y36.183 E3.37481
G1 X53.367 Y35.529 E.02052
G1 X53.46 Y34.903 E.01983
G1 X53.721 Y33.953 E.03092
G1 X53.967 Y33.359 E.02014
G1 X54.441 Y32.522 E.03016
G1 X54.831 Y31.995 E.02057
G1 X55.265 Y31.515 E.02028
G1 X55.743 Y31.082 E.02021
G1 X56.539 Y30.522 E.03054
G1 X57.108 Y30.218 E.0202
G1 X57.705 Y29.97 E.02029
G1 X58.324 Y29.783 E.02026
G1 X58.946 Y29.659 E.01991
G1 X59.602 Y29.593 E.02066
G1 X120.384 Y29.593 E1.90578
G1 X121.363 Y29.713 E.03092
G1 X121.737 Y29.806 E.01209
M204 P1000
G1 X121.855 Y30.01 F9000
G1 E-2.24 F4200
;WIPE_START
G1 F7200
G1 X121.988 Y29.869 E-.14329
G1 X122.597 Y30.087 E-.35836
G1 X123.181 Y30.363 E-.35836
G1 X123.262 Y30.412 E-.05199
;WIPE_END
G1 E-.048 F4200
G1 Z.4 F720
G1 X67.838 Y48.754 F9000
G1 Z.2 F720
G1 E3.2 F2400
M204 P800
;TYPE:Perimeter
G1 F1200
G1 X68.249 Y49.309 E.02165
G1 X68.569 Y49.991 E.02363
G1 X68.748 Y50.724 E.02363
G1 X68.778 Y51.477 E.02363
M73 P0 R124
G1 X68.658 Y52.221 E.02363
G1 X68.393 Y52.926 E.02363
G1 X67.994 Y53.566 E.02363
G1 X67.476 Y54.113 E.02363
G1 X66.859 Y54.547 E.02363
G1 X66.169 Y54.85 E.02363
G1 X65.433 Y55.01 E.02363
G1 X64.679 Y55.021 E.02363
G1 X63.773 Y54.829 E.02906
G1 X63.075 Y54.509 E.02408
G1 X62.467 Y54.062 E.02363
G1 X61.96 Y53.505 E.02363
G1 X61.574 Y52.858 E.02363
G1 X61.323 Y52.147 E.02363
G1 X61.218 Y51.401 E.02363
G1 X61.263 Y50.648 E.02363
G1 X61.457 Y49.92 E.02363
M73 P1 R124
G1 X61.791 Y49.244 E.02363
G1 X62.252 Y48.648 E.02363
G1 X62.822 Y48.155 E.02363
G1 X63.478 Y47.785 E.02363
G1 X64.195 Y47.552 E.02363
G1 X64.931 Y47.466 E.02322
G1 X65.864 Y47.567 E.02944
G1 X66.591 Y47.816 E.0241
G1 X67.24 Y48.199 E.02363
G1 X67.802 Y48.706 E.02372
M204 P1000
G1 X67.59 Y49.044 F9000
M204 P800
;TYPE:External perimeter
G1 F1200
G1 X67.943 Y49.529 E.01882
G1 X68.226 Y50.146 E.02129
G1 X68.38 Y50.808 E.02129
G1 X68.401 Y51.486 E.02129
G1 X68.287 Y52.155 E.02129
G1 X68.042 Y52.789 E.02129
G1 X67.677 Y53.361 E.02129
G1 X67.206 Y53.85 E.02129
G1 X66.647 Y54.235 E.02129
G1 X66.023 Y54.502 E.02129
G1 X65.358 Y54.64 E.02129
G1 X64.679 Y54.644 E.02129
G1 X63.857 Y54.461 E.02643
G1 X63.238 Y54.169 E.02144
G1 X62.695 Y53.762 E.02129
G1 X62.243 Y53.255 E.02129
G1 X61.9 Y52.669 E.02129
G1 X61.681 Y52.027 E.02129
G1 X61.592 Y51.354 E.02129
G1 X61.639 Y50.677 E.02129
G1 X61.82 Y50.022 E.02129
G1 X62.126 Y49.416 E.02129
G1 X62.546 Y48.883 E.02129
G1 X63.064 Y48.444 E.02129
G1 X63.659 Y48.116 E.02128
G1 X64.306 Y47.912 E.02129
G1 X64.969 Y47.841 E.0209
G1 X65.818 Y47.941 E.02681
G1 X66.462 Y48.17 E.02144
G1 X67.044 Y48.521 E.02129
G1 X67.555 Y48.995 E.02186
M204 P1000
G1 X67.982 Y48.964 F9000
G1 E-2.24 F4200
;WIPE_START
G1 F7200
G1 X67.943 Y49.529 E-.36591
G1 X68.226 Y50.146 E-.37622
G1 X68.296 Y50.445 E-.16987
;WIPE_END
G1 E-.048 F4200
G1 Z.4 F720
G1 X111.934 Y53.456 F9000
G1 Z.2 F720
G1 E3.2 F2400
M204 P800
;TYPE:Perimeter
G1 F1200
G1 X111.574 Y52.858 E.02189
G1 X111.323 Y52.147 E.02363
G1 X111.218 Y51.401 E.02363
G1 X111.263 Y50.648 E.02363
G1 X111.457 Y49.92 E.02363
G1 X111.791 Y49.244 E.02363
G1 X112.252 Y48.648 E.02363
G1 X112.822 Y48.155 E.02363
G1 X113.478 Y47.785 E.02363
G1 X114.195 Y47.552 E.02363
G1 X114.931 Y47.466 E.02322
G1 X115.864 Y47.567 E.02944
G1 X116.591 Y47.816 E.0241
G1 X117.24 Y48.199 E.02363
G1 X117.8 Y48.704 E.02363
G1 X118.249 Y49.309 E.02363
G1 X118.569 Y49.991 E.02363
G1 X118.748 Y50.724 E.02363
G1 X118.778 Y51.477 E.02363
G1 X118.658 Y52.221 E.02363
G1 X118.393 Y52.926 E.02363
G1 X117.994 Y53.566 E.02363
G1 X117.476 Y54.113 E.02363
G1 X116.859 Y54.547 E.02363
G1 X116.169 Y54.85 E.02363
G1 X115.433 Y55.01 E.02363
G1 X114.679 Y55.021 E.02363
G1 X113.938 Y54.883 E.02363
G1 X113.24 Y54.601 E.02363
G1 X112.611 Y54.185 E.02363
G1 X111.965 Y53.507 E.02936
M204 P1000
G1 X112.425 Y53.449 F9000
M204 P800
;TYPE:External perimeter
G1 F1200
G1 X112.246 Y53.259 E.00818
G1 X111.9 Y52.669 E.02144
G1 X111.681 Y52.027 E.02129
G1 X111.592 Y51.354 E.02129
G1 X111.639 Y50.677 E.02129
G1 X111.82 Y50.022 E.02129
G1 X112.126 Y49.416 E.02129
G1 X112.546 Y48.883 E.02129
G1 X113.064 Y48.444 E.02129
G1 X113.659 Y48.116 E.02129
G1 X114.306 Y47.912 E.02129
G1 X114.969 Y47.841 E.0209
G1 X115.818 Y47.941 E.02681
G1 X116.462 Y48.17 E.02144
G1 X117.044 Y48.521 E.02129
G1 X117.544 Y48.98 E.02129
G1 X117.943 Y49.529 E.02129
G1 X118.226 Y50.147 E.02129
G1 X118.38 Y50.808 E.02129
G1 X118.401 Y51.486 E.02129
G1 X118.287 Y52.155 E.02129
G1 X118.042 Y52.789 E.02129
G1 X117.677 Y53.361 E.02129
G1 X117.206 Y53.85 E.02129
G1 X116.647 Y54.235 E.02129
G1 X116.023 Y54.502 E.02129
G1 X115.358 Y54.64 E.02129
G1 X114.679 Y54.644 E.02129
G1 X114.013 Y54.513 E.02129
G1 X113.386 Y54.253 E.02129
G1 X112.823 Y53.874 E.02129
G1 X112.466 Y53.493 E.01637
M204 P1000
G1 X112.173 Y53.519 F9000
G1 E-2.24 F4200
;WIPE_START
G1 F7200
G1 X112.246 Y53.259 E-.17777
G1 X111.9 Y52.669 E-.37893
G1 X111.693 Y52.063 E-.35529
;WIPE_END
G1 E-.048 F4200
G1 Z.4 F720
G1 X115.37 Y142.511 F9000
G1 Z.2 F720
G1 E3.2 F2400
M204 P800
;TYPE:Perimeter
G1 F1200
G1 X114.679 Y142.521 E.02165
G1 X113.938 Y142.383 E.02363
G1 X113.24 Y142.1 E.02363
G1 X112.611 Y141.685 E.02363
G1 X112.076 Y141.154 E.02363
G1 X111.658 Y140.527 E.02363
G1 X111.328 Y139.661 E.02906
G1 X111.218 Y138.901 E.02407
G1 X111.263 Y138.148 E.02363
G1 X111.457 Y137.42 E.02363
G1 X111.791 Y136.744 E.02363
G1 X112.252 Y136.148 E.02363
G1 X112.822 Y135.655 E.02363
G1 X113.478 Y135.285 E.02363
G1 X114.195 Y135.052 E.02363
G1 X114.931 Y134.966 E.02322
G1 X115.864 Y135.067 E.02944
G1 X116.591 Y135.316 E.0241
G1 X117.24 Y135.699 E.02363
G1 X117.8 Y136.204 E.02363
G1 X118.249 Y136.809 E.02363
G1 X118.569 Y137.491 E.02363
G1 X118.748 Y138.224 E.02363
G1 X118.778 Y138.977 E.02363
G1 X118.658 Y139.721 E.02363
G1 X118.393 Y140.426 E.02363
G1 X117.994 Y141.066 E.02363
G1 X117.389 Y141.685 E.02714
G1 X116.859 Y142.047 E.02011
G1 X116.169 Y142.35 E.02363
G1 X115.43 Y142.51 E.02373
M204 P1000
G1 X115.512 Y142.108 F9000
M204 P800
;TYPE:External perimeter
G1 F1200
G1 X115.358 Y142.14 E.00494
G1 X114.679 Y142.144 E.02129
G1 X114.013 Y142.013 E.02129
G1 X113.386 Y141.753 E.02129
G1 X112.823 Y141.374 E.02129
G1 X112.346 Y140.89 E.02129
G1 X111.975 Y140.322 E.02129
G1 X111.682 Y139.532 E.02643
G1 X111.592 Y138.854 E.02144
G1 X111.639 Y138.177 E.02129
G1 X111.82 Y137.522 E.02129
G1 X112.126 Y136.916 E.02129
G1 X112.546 Y136.383 E.02129
G1 X113.064 Y135.944 E.02129
G1 X113.659 Y135.616 E.02129
G1 X114.306 Y135.412 E.02129
G1 X114.969 Y135.341 E.0209
G1 X115.818 Y135.441 E.02681
G1 X116.462 Y135.67 E.02144
G1 X117.044 Y136.021 E.02129
G1 X117.544 Y136.48 E.02129
G1 X117.943 Y137.029 E.02129
G1 X118.226 Y137.646 E.02129
G1 X118.38 Y138.307 E.02129
G1 X118.401 Y138.986 E.02129
G1 X118.287 Y139.655 E.02129
G1 X118.042 Y140.289 E.02129
G1 X117.677 Y140.861 E.02129
G1 X117.259 Y141.295 E.0189
G1 X116.647 Y141.735 E.02363
G1 X116.023 Y142.002 E.02129
G1 X115.571 Y142.096 E.01446
M204 P1000
G1 X115.469 Y142.26 F9000
G1 E-2.24 F4200
;WIPE_START
G1 F7200
G1 X115.358 Y142.14 E-.1206
G1 X114.679 Y142.144 E-.37621
G1 X114.013 Y142.013 E-.37622
G1 X113.948 Y141.986 E-.03896
;WIPE_END
G1 E-.048 F4200
G1 Z.4 F720
G1 X61.553 Y140.298 F9000
G1 Z.2 F720
G1 E3.2 F2400
M204 P800
;TYPE:Perimeter
G1 F1200
G1 X61.323 Y139.647 E.02164
G1 X61.218 Y138.901 E.02363
G1 X61.263 Y138.148 E.02363
G1 X61.457 Y137.42 E.02363
G1 X61.791 Y136.744 E.02363
G1 X62.252 Y136.148 E.02363
G1 X62.822 Y135.655 E.02363
G1 X63.478 Y135.285 E.02363
G1 X64.195 Y135.052 E.02363
G1 X64.931 Y134.966 E.02322
G1 X65.864 Y135.067 E.02944
G1 X66.591 Y135.316 E.0241
G1 X67.24 Y135.699 E.02363
G1 X67.8 Y136.204 E.02363
G1 X68.249 Y136.809 E.02363
G1 X68.569 Y137.491 E.02363
G1 X68.748 Y138.224 E.02363
G1 X68.778 Y138.977 E.02363
G1 X68.658 Y139.721 E.02363
G1 X68.393 Y140.426 E.02363
G1 X67.994 Y141.065 E.02363
G1 X67.476 Y141.613 E.02363
G1 X66.859 Y142.047 E.02363
G1 X66.169 Y142.35 E.02363
G1 X65.433 Y142.51 E.02363
G1 X64.679 Y142.521 E.02363
G1 X63.773 Y142.329 E.02906
G1 X63.075 Y142.009 E.02407
G1 X62.585 Y141.652 E.01901
G1 X62.204 Y141.282 E.01664
G1 X61.894 Y140.913 E.01509
G1 X61.573 Y140.355 E.02022
M204 P1000
G1 X61.871 Y140.082 F9000
M204 P800
;TYPE:External perimeter
G1 F1200
G1 X61.681 Y139.527 E.01841
G1 X61.592 Y138.854 E.02129
G1 X61.639 Y138.176 E.02129
G1 X61.82 Y137.522 E.02129
G1 X62.126 Y136.916 E.02129
G1 X62.546 Y136.383 E.02129
G1 X63.064 Y135.944 E.02129
G1 X63.658 Y135.616 E.02129
G1 X64.306 Y135.412 E.02129
G1 X64.969 Y135.341 E.0209
G1 X65.818 Y135.441 E.02681
G1 X66.462 Y135.67 E.02144
G1 X67.044 Y136.021 E.02129
G1 X67.544 Y136.48 E.02129
G1 X67.943 Y137.029 E.02129
G1 X68.226 Y137.646 E.02129
G1 X68.38 Y138.307 E.02129
G1 X68.401 Y138.986 E.02129
G1 X68.287 Y139.655 E.02129
G1 X68.042 Y140.289 E.02129
G1 X67.677 Y140.861 E.02129
G1 X67.206 Y141.349 E.02129
G1 X66.647 Y141.735 E.02129
G1 X66.023 Y142.002 E.02129
G1 X65.358 Y142.14 E.02129
G1 X64.679 Y142.144 E.02129
G1 X63.856 Y141.961 E.02643
G1 X63.238 Y141.669 E.02144
G1 X62.813 Y141.351 E.01666
G1 X62.394 Y140.926 E.01871
G1 X62.221 Y140.725 E.00831
G1 X61.89 Y140.139 E.0211
M204 P1000
G1 X61.473 Y140.035 F9000
G1 E-2.24 F4200
;WIPE_START
G1 F7200
G1 X61.681 Y139.527 E-.35856
G1 X61.592 Y138.854 E-.37622
G1 X61.615 Y138.535 E-.17722
;WIPE_END
G1 E-.048 F4200
G1 Z.4 F720
G1 X122.227 Y30.475 F9000
G1 Z.2 F720
G1 E3.2 F2400
M204 P800
;TYPE:Solid infill
;WIDTH:0.420118
G1 F1200
G1 X125.439 Y33.687 E.14246
G1 X125.66 Y34.188 E.01717
G1 X125.771 Y34.553 E.01198
G1 X121.694 Y30.476 E.18086
G1 X121.242 Y30.363 E.0146
G1 X121.02 Y30.335 E.00702
G1 X125.927 Y35.243 E.21766
G1 X125.993 Y35.841 E.01889
G1 X120.412 Y30.261 E.24751
G1 X119.871 Y30.253 E.017
G1 X125.997 Y36.379 E.27173
G1 X125.997 Y36.913 E.01673
G1 X119.337 Y30.253 E.2954
